icons/op-up-down-stepper-24.svg

<svg width="24" height="24" viewBox="0 0 24 24" fill="none" xmlns="http://www.w3.org/2000/svg">
<path d="M18.8209 10.1096C18.9541 10.2704 19.0168 10.4724 18.9961 10.6748C18.9755 10.8771 18.8731 11.0645 18.7097 11.199C18.5463 11.3334 18.3343 11.4048 18.1166 11.3986C17.8989 11.3924 17.6918 11.3091 17.5376 11.1656L13 6.93112L8.46244 11.1656L8.38185 11.232C8.20955 11.3563 7.99299 11.4148 7.77616 11.3955C7.55934 11.3762 7.35851 11.2807 7.21445 11.1282C7.0704 10.9757 6.99394 10.7778 7.00058 10.5747C7.00723 10.3715 7.0965 10.1783 7.25025 10.0344L12.3939 5.23429L12.4745 5.16789C12.6394 5.04849 12.8454 4.98935 13.0537 5.00158C13.2621 5.0138 13.4585 5.09655 13.6061 5.23429L18.7498 10.0344L18.8209 10.1096ZM7.17909 15.8904C7.04586 15.7296 6.98321 15.5276 7.00387 15.3252C7.02452 15.1229 7.12693 14.9355 7.2903 14.801C7.45367 14.6666 7.66574 14.5952 7.88344 14.6014C8.10115 14.6076 8.30816 14.6909 8.46244 14.8344L13 19.0689L17.5376 14.8344L17.6181 14.768C17.7905 14.6437 18.007 14.5852 18.2238 14.6045C18.4407 14.6238 18.6415 14.7193 18.7855 14.8718C18.9296 15.0243 19.0061 15.2222 18.9994 15.4253C18.9928 15.6285 18.9035 15.8217 18.7498 15.9656L13.6061 20.7657L13.5255 20.8321C13.3606 20.9515 13.1546 21.0106 12.9463 20.9984C12.7379 20.9862 12.5415 20.9035 12.3939 20.7657L7.25025 15.9656L7.17909 15.8904Z" fill="black"/>
</svg>

<svg xmlns="http://www.w3.org/2000/svg" width="24" height="24" viewBox="0 0 24 24"><path d="M18.821 10.11a.76.76 0 0 1-.111 1.089.9.9 0 0 1-1.172-.033L13 6.931l-4.538 4.235-.08.066a.905.905 0 0 1-1.168-.104.765.765 0 0 1 .036-1.094l5.144-4.8.081-.066a.888.888 0 0 1 .579-.166.887.887 0 0 1 .552.232l5.144 4.8.071.076ZM7.179 15.89a.76.76 0 0 1 .111-1.089.9.9 0 0 1 1.172.033L13 19.069l4.538-4.235.08-.066a.907.907 0 0 1 .606-.164c.217.02.418.115.561.268a.762.762 0 0 1-.035 1.094l-5.144 4.8-.081.066a.894.894 0 0 1-.579.166.881.881 0 0 1-.552-.232l-5.144-4.8-.071-.076Z"/></svg>
